X: 1
T: Pibroch Of Donald Dhu
M: 6/8
L: 1/8
R: jig
K: Amaj
|:ecc fga|ecc cBA|ecc fga|ecA B2A|
ecc fga|ecc cBA|B2c def|ecA B2A:|
|:ecc fdd|ecc cBA|ecc fdd|ecA B2A|
ecc fdd|ecc cBA|B2c def|ecA B2A:|
|:e2e f2f|e2e cBA|e2e f2f|ecA B2A|
e2e f2f|e2e cBA|B2c def|ecA B2A:|
|:a2e a2f|a2e cBA|a2e a2f|ecA B2A|
a2e a2f|a2e cBA|B2c def|ecA B2A:|
